!!!OTL-incipit: DIE WOLLUST IN DEN MAYEN
!!!ARE: Europa, Mitteleuropa, Deutschland
!!!SCT: Z0277
!!!TXL: @@DE
!!!YEM: Copyright 1995, estate of Helmut Schaffrath.
**kern	**text
*ICvox	*
*M2/4	*
*k[f#c#g#]	*
*A:	*
!LO:TX:a:t=Altdeutſch.	!
{8a	Die
=1	=1
8.ee	Wol-
16ff#	-luſt
8ee	in
8dd	den
=2	=2
4cc#	May-
8cc#}	-en,
{8cc#	die
=3	=3
8.dd	Ʒeit
16ee	hat
8dd	Freu-
8cc#	-den
=4	=4
4b	bracht,
8r}	.
{8a	Die
=5	=5
8.ee	Blümlein
16ff#	.
8ee	man-
8dd	-cher-
=6	=6
4cc#	-lei-
8cc#}	-en,
{8cc#	ein
=7	=7
8.dd	jeg-
16ee	-lichs
8dd	nach
8cc#	ſein'r
=8	=8
4b	G'ſtalt.
8r}	.
{8b	Es
=9	=9
8.dd	ſind
16cc#	die
8dd	ro-
8ee	-then
=10	=10
8.dd	Rö-
16ee	-ſe-
8ff#}	-lein,
{8dd#	der
=11	=11
8.ee	Feyel,
16ff#	der
8.ee	grü-
16dd#	-ne
=12	=12
4ee	Klee;
8r}	.
{8a	von
=13	=13
8.ee	her-
16ff#	-ʒer
8.ee	Lie-
16dd	-be
=14	=14
4cc#	ſchei-
4cc#}	-den,
=15	=15
{4dd	das
4b	thut
=16	=16
4a	weh!
8r}	.
==	==
!!!AGN: Lyrisches Lied, Romanze
!!!ONB: ESAC (Essen Associative Code) Database: ZUCCAL
!!!AMT: simple duple
!!!AIN: vox
!!!EED: Helmut Schaffrath
!!!EEV: 1.0
!!!GTL: IV. Lyrische Lieder.
!!!URL-scan: https://www.digitale-sammlungen.de/de/view/bsb11160571?page=501
!!!ENC: Anna Maria Matuszewska
!!!EEV: 2025/01/30
*-	*-
